Obsidian/status/16s/tray-new-im.svg

<svg height="16" width="16" xmlns="http://www.w3.org/2000/svg"><path d="m3 2s-2 0-2 2v5.5a2.5 2.5 0 0 1 2.5-2.5 2.5 2.5 0 0 1 2.5 2.5 2.5 2.5 0 0 1 -2.5 2.5h4.5l2 3 2-3h1c1.11 0 2-.89 2-2v-1-2-3c0-2-1.971-2-1.971-2z" fill="#d3dae3"/><circle cx="3.5" cy="9.5" fill="#5294e2" r="1.5"/></svg>

<svg xmlns="http://www.w3.org/2000/svg" width="16" height="16" version="1.1">
 <defs>
  <style id="current-color-scheme" type="text/css">
   .ColorScheme-Text { color:#d3dae3; } .ColorScheme-Highlight { color:#5294e2; }
  </style>
 </defs>
 <path style="fill:currentColor" class="ColorScheme-Text" d="M 3,2 C 3,2 1,2 1,4 V 9.5 A 2.5,2.5 0 0 1 3.5,7 2.5,2.5 0 0 1 6,9.5 2.5,2.5 0 0 1 3.5,12 H 8 L 10,15 12,12 H 13 C 14.11,12 15,11.11 15,10 V 9 7 4 C 15,2 13.029,2 13.029,2 Z"/>
 <circle style="fill:currentColor" class="ColorScheme-Highlight" cx="3.5" cy="9.5" r="1.5"/>
</svg>
